hero/outline/key.svg

<svg width="24" height="24" viewBox="0 0 24 24" fill="none" xmlns="http://www.w3.org/2000/svg">
<path d="M15.75 5.25C17.4069 5.25 18.75 6.59315 18.75 8.25M21.75 8.25C21.75 11.5637 19.0637 14.25 15.75 14.25C15.3993 14.25 15.0555 14.2199 14.7213 14.1622C14.1583 14.0649 13.562 14.188 13.158 14.592L10.5 17.25H8.25V19.5H6V21.75H2.25V18.932C2.25 18.3352 2.48705 17.7629 2.90901 17.341L9.408 10.842C9.81202 10.438 9.93512 9.84172 9.83785 9.2787C9.7801 8.94446 9.75 8.60074 9.75 8.25C9.75 4.93629 12.4363 2.25 15.75 2.25C19.0637 2.25 21.75 4.93629 21.75 8.25Z" stroke="#0F172A" stroke-width="1.5" stroke-linecap="round" stroke-linejoin="round"/>
</svg>

<svg viewBox="0 0 24 24" xmlns="http://www.w3.org/2000/svg"><path fill="none" stroke="#000" stroke-linecap="round" stroke-linejoin="round" stroke-width="1.5" d="M15.75 5.25v0c1.65 0 3 1.34 3 3m3 0v0c0 3.31-2.69 6-6 6 -.35 0-.69-.03-1.03-.09 -.57-.1-1.16.02-1.57.43l-2.66 2.65H8.24v2.25H5.99v2.25H2.24v-2.82c0-.6.23-1.17.65-1.6l6.49-6.5c.4-.41.52-1 .43-1.57v0c-.57-3.27 1.62-6.38 4.88-6.94 3.26-.57 6.37 1.62 6.93 4.88 .05.33.08.67.08 1.01Z"/></svg>
